X: 1
T: Concertina, The
M: 4/4
L: 1/8
R: hornpipe
K: Gmaj
|:D2|GABc defa|~g2 dc BG ~G2|FGAB cdec|BGAG ~F2 D2|
GABc defa|~g2 dc BG ~G2|FGAB cAGF|DGGF G2:|
|:Bc|d2 (3ed^c d=cBc|defa gedB|c2 cB ceag|fd ~d2 cAFA|
dB ~B2 dcBc|defa gedc|Bdgd cAGF|DGGF G2:|
